plasma/desktoptheme/Materia/widgets/action-overlays.svg

<svg xmlns="http://www.w3.org/2000/svg" width="48" height="48" version="1.1">
 <g id="16-16-remove-normal" transform="translate(0,-18)">
  <rect style="opacity:0.001" width="16" height="16" x="0" y="34"/>
  <path style="opacity:0.1;fill:#ffffff" d="m 15,41.999999 a 6.9999999,6.9999999 0 0 1 -7,6.999999 6.9999999,6.9999999 0 0 1 -7,-6.999999 6.9999999,6.9999999 0 0 1 7,-7 6.9999999,6.9999999 0 0 1 7,7 z"/>
  <rect style="fill:#ffffff" width="2" height="8" x="41" y="-12" transform="rotate(90)"/>
 </g>
 <g id="16-16-add-normal" transform="translate(0,-18)">
  <rect style="opacity:0.001" width="16" height="16" x="0" y="18"/>
  <path style="opacity:0.1;fill:#ffffff" d="m 15,25.999999 a 6.9999999,6.9999999 0 0 1 -7,6.999999 6.9999999,6.9999999 0 0 1 -7,-6.999999 6.9999999,6.9999999 0 0 1 7,-7 6.9999999,6.9999999 0 0 1 7,7 z"/>
  <path style="fill:#ffffff" transform="translate(0,18)" d="M 7 4 L 7 7 L 4 7 L 4 9 L 7 9 L 7 12 L 9 12 L 9 9 L 12 9 L 12 7 L 9 7 L 9 4 L 7 4 z"/>
 </g>
 <g id="16-16-open-normal" transform="translate(0,-18)">
  <rect style="opacity:0.001" width="16" height="16" x="0" y="50"/>
  <path style="opacity:0.1;fill:#ffffff" d="m 15,57.999999 a 6.9999999,6.9999999 0 0 1 -7,6.999999 6.9999999,6.9999999 0 0 1 -7,-6.999999 6.9999999,6.9999999 0 0 1 7,-7 6.9999999,6.9999999 0 0 1 7,7 z"/>
  <path style="fill:#ffffff" transform="matrix(1.0755682,0,0,0.77622444,-0.90681813,26.622351)" d="M 8.2810355,36.558561 10.140518,39.779279 12,42.999997 H 8.2810354 4.5620707 l 1.8594824,-3.220718 z"/>
 </g>
 <g id="16-16-remove-hover" transform="translate(16,-18)">
  <rect style="opacity:0.001" width="16" height="16" x="0" y="34"/>
  <path style="fill:#f44336" d="m 15,41.999999 a 6.9999999,6.9999999 0 0 1 -7,6.999999 6.9999999,6.9999999 0 0 1 -7,-6.999999 6.9999999,6.9999999 0 0 1 7,-7 6.9999999,6.9999999 0 0 1 7,7 z"/>
  <rect style="fill:#ffffff" width="2" height="8" x="41" y="-12" transform="rotate(90)"/>
 </g>
 <g id="16-16-add-hover" transform="translate(16,-18)">
  <rect style="opacity:0.001" width="16" height="16" x="0" y="18"/>
  <path style="fill:#4caf50" d="m 15,25.999999 a 6.9999999,6.9999999 0 0 1 -7,6.999999 6.9999999,6.9999999 0 0 1 -7,-6.999999 6.9999999,6.9999999 0 0 1 7,-7 6.9999999,6.9999999 0 0 1 7,7 z"/>
  <path style="fill:#ffffff" transform="translate(-16,18)" d="M 23 4 L 23 7 L 20 7 L 20 9 L 23 9 L 23 12 L 25 12 L 25 9 L 28 9 L 28 7 L 25 7 L 25 4 L 23 4 z"/>
 </g>
 <g id="16-16-open-hover" transform="translate(16,-18)">
  <rect style="opacity:0.001" width="16" height="16" x="0" y="50"/>
  <path style="fill:#8ab4f8" d="m 15,57.999999 a 6.9999999,6.9999999 0 0 1 -7,6.999999 6.9999999,6.9999999 0 0 1 -7,-6.999999 6.9999999,6.9999999 0 0 1 7,-7 6.9999999,6.9999999 0 0 1 7,7 z"/>
  <path style="fill:#ffffff" transform="matrix(1.0755682,0,0,0.77622444,-0.90681813,26.622351)" d="M 8.2810355,36.558561 10.140518,39.779279 12,42.999997 H 8.2810354 4.5620707 l 1.8594824,-3.220718 z"/>
 </g>
 <g id="16-16-remove-pressed" transform="translate(32,-18)">
  <rect style="opacity:0.001" width="16" height="16" x="0" y="34"/>
  <path style="fill:#f44336" d="m 15,41.999999 a 6.9999999,6.9999999 0 0 1 -7,6.999999 6.9999999,6.9999999 0 0 1 -7,-6.999999 6.9999999,6.9999999 0 0 1 7,-7 6.9999999,6.9999999 0 0 1 7,7 z"/>
  <rect style="fill:#ffffff" width="2" height="8" x="41" y="-12" transform="rotate(90)"/>
 </g>
 <g id="16-16-add-pressed" transform="translate(32,-18)">
  <rect style="opacity:0.001" width="16" height="16" x="0" y="18"/>
  <path style="fill:#4caf50" d="m 15,25.999999 a 6.9999999,6.9999999 0 0 1 -7,6.999999 6.9999999,6.9999999 0 0 1 -7,-6.999999 6.9999999,6.9999999 0 0 1 7,-7 6.9999999,6.9999999 0 0 1 7,7 z"/>
  <path style="fill:#ffffff" transform="translate(-32,18)" d="M 39 4 L 39 7 L 36 7 L 36 9 L 39 9 L 39 12 L 41 12 L 41 9 L 44 9 L 44 7 L 41 7 L 41 4 L 39 4 z"/>
 </g>
 <g id="16-16-open-pressed" transform="translate(32,-18)">
  <rect style="opacity:0.001" width="16" height="16" x="0" y="50"/>
  <path style="fill:#8ab4f8" d="m 15,57.999999 a 6.9999999,6.9999999 0 0 1 -7,6.999999 6.9999999,6.9999999 0 0 1 -7,-6.999999 6.9999999,6.9999999 0 0 1 7,-7 6.9999999,6.9999999 0 0 1 7,7 z"/>
  <path style="fill:#ffffff" transform="matrix(1.0755682,0,0,0.77622444,-0.90681813,26.622351)" d="M 8.2810355,36.558561 10.140518,39.779279 12,42.999997 H 8.2810354 4.5620707 l 1.8594824,-3.220718 z"/>
 </g>
 <g id="22-22-add-normal" transform="translate(-13,-79)">
  <rect style="opacity:0.001" width="22" height="22" x="13" y="13"/>
  <path style="opacity:0.1;fill:#ffffff" d="m 34,24.000001 a 9.9999999,9.9999999 0 0 1 -10,9.999998 9.9999999,9.9999999 0 0 1 -10,-9.999998 9.9999999,9.9999999 0 0 1 10,-10 9.9999999,9.9999999 0 0 1 10,10 z"/>
  <path style="fill:#ffffff" transform="translate(13,79)" d="M 10 -60 L 10 -56 L 6 -56 L 6 -54 L 10 -54 L 10 -50 L 12 -50 L 12 -54 L 16 -54 L 16 -56 L 12 -56 L 12 -60 L 10 -60 z"/>
 </g>
 <g id="22-22-open-normal" transform="translate(-13,-35)">
  <rect style="opacity:0.001" width="22" height="22" x="13" y="13"/>
  <path style="opacity:0.1;fill:#ffffff" d="m 34,24.000001 a 9.9999999,9.9999999 0 0 1 -10,9.999998 9.9999999,9.9999999 0 0 1 -10,-9.999998 9.9999999,9.9999999 0 0 1 10,-10 9.9999999,9.9999999 0 0 1 10,10 z"/>
  <path style="fill:#ffffff" d="m 24,20 2.5,3 2.5,3 h -5 -5 l 2.5,-3 z"/>
 </g>
 <g id="22-22-remove-normal" transform="translate(-13,-57)">
  <rect style="opacity:0.001" width="22" height="22" x="13" y="13"/>
  <path style="opacity:0.1;fill:#ffffff" d="m 34,24.000001 a 9.9999999,9.9999999 0 0 1 -10,9.999998 9.9999999,9.9999999 0 0 1 -10,-9.999998 9.9999999,9.9999999 0 0 1 10,-10 9.9999999,9.9999999 0 0 1 10,10 z"/>
  <rect style="fill:#ffffff" width="2" height="10" x="23" y="-29" transform="rotate(90)"/>
 </g>
 <g id="remove-normal" transform="matrix(2,0,0,2,0,-198)">
  <rect style="opacity:0.001" width="16" height="16" x="0" y="34"/>
  <path style="opacity:0.1;fill:#ffffff" d="m 15,41.999999 a 6.9999999,6.9999999 0 0 1 -7,6.999999 6.9999999,6.9999999 0 0 1 -7,-6.999999 6.9999999,6.9999999 0 0 1 7,-7 6.9999999,6.9999999 0 0 1 7,7 z"/>
  <rect style="fill:#ffffff" width="2" height="8" x="41" y="-12" transform="rotate(90)"/>
 </g>
 <g id="add-normal" transform="matrix(2,0,0,2,0,-198)">
  <rect style="opacity:0.001" width="16" height="16" x="0" y="18"/>
  <path style="opacity:0.1;fill:#ffffff" d="m 15,25.999999 a 6.9999999,6.9999999 0 0 1 -7,6.999999 6.9999999,6.9999999 0 0 1 -7,-6.999999 6.9999999,6.9999999 0 0 1 7,-7 6.9999999,6.9999999 0 0 1 7,7 z"/>
  <path style="fill:#ffffff" transform="matrix(0.5,0,0,0.5,0,99)" d="M 14 -154 L 14 -148 L 8 -148 L 8 -144 L 14 -144 L 14 -138 L 18 -138 L 18 -144 L 24 -144 L 24 -148 L 18 -148 L 18 -154 L 14 -154 z"/>
 </g>
 <g id="open-normal" transform="matrix(2,0,0,2,0,-198)">
  <rect style="opacity:0.001" width="16" height="16" x="0" y="50"/>
  <path style="opacity:0.1;fill:#ffffff" d="m 15,57.999999 a 6.9999999,6.9999999 0 0 1 -7,6.999999 6.9999999,6.9999999 0 0 1 -7,-6.999999 6.9999999,6.9999999 0 0 1 7,-7 6.9999999,6.9999999 0 0 1 7,7 z"/>
  <path style="fill:#ffffff" transform="matrix(1.0755682,0,0,0.77622444,-0.90681813,26.622351)" d="M 8.2810355,36.558561 10.140518,39.779279 12,42.999997 H 8.2810354 4.5620707 l 1.8594824,-3.220718 z"/>
 </g>
 <g id="22-22-add-hover" transform="translate(9,-79)">
  <rect style="opacity:0.001" width="22" height="22" x="13" y="13"/>
  <path style="fill:#4caf50" d="m 34,24.000001 a 9.9999999,9.9999999 0 0 1 -10,9.999998 9.9999999,9.9999999 0 0 1 -10,-9.999998 9.9999999,9.9999999 0 0 1 10,-10 9.9999999,9.9999999 0 0 1 10,10 z"/>
  <path style="fill:#ffffff" transform="translate(-9,79)" d="M 32 -60 L 32 -56 L 28 -56 L 28 -54 L 32 -54 L 32 -50 L 34 -50 L 34 -54 L 38 -54 L 38 -56 L 34 -56 L 34 -60 L 32 -60 z"/>
 </g>
 <g id="22-22-open-hover" transform="translate(9,-35)">
  <rect style="opacity:0.001" width="22" height="22" x="13" y="13"/>
  <path style="fill:#8ab4f8" d="m 34,24.000001 a 9.9999999,9.9999999 0 0 1 -10,9.999998 9.9999999,9.9999999 0 0 1 -10,-9.999998 9.9999999,9.9999999 0 0 1 10,-10 9.9999999,9.9999999 0 0 1 10,10 z"/>
  <path style="fill:#ffffff" d="m 24,20 2.5,3 2.5,3 h -5 -5 l 2.5,-3 z"/>
 </g>
 <g id="22-22-remove-hover" transform="translate(9,-57)">
  <rect style="opacity:0.001" width="22" height="22" x="13" y="13"/>
  <path style="fill:#f44336" d="m 34,24.000001 a 9.9999999,9.9999999 0 0 1 -10,9.999998 9.9999999,9.9999999 0 0 1 -10,-9.999998 9.9999999,9.9999999 0 0 1 10,-10 9.9999999,9.9999999 0 0 1 10,10 z"/>
  <rect style="fill:#ffffff" width="2" height="10" x="23" y="-29" transform="rotate(90)"/>
 </g>
 <g id="22-22-add-pressed" transform="translate(31,-79)">
  <rect style="opacity:0.001" width="22" height="22" x="13" y="13"/>
  <path style="fill:#4caf50" d="m 34,24.000001 a 9.9999999,9.9999999 0 0 1 -10,9.999998 9.9999999,9.9999999 0 0 1 -10,-9.999998 9.9999999,9.9999999 0 0 1 10,-10 9.9999999,9.9999999 0 0 1 10,10 z"/>
  <path style="fill:#ffffff" transform="translate(-31,79)" d="M 54 -60 L 54 -56 L 50 -56 L 50 -54 L 54 -54 L 54 -50 L 56 -50 L 56 -54 L 60 -54 L 60 -56 L 56 -56 L 56 -60 L 54 -60 z"/>
 </g>
 <g id="22-22-open-pressed" transform="translate(31,-35)">
  <rect style="opacity:0.001" width="22" height="22" x="13" y="13"/>
  <path style="fill:#8ab4f8" d="m 34,24.000001 a 9.9999999,9.9999999 0 0 1 -10,9.999998 9.9999999,9.9999999 0 0 1 -10,-9.999998 9.9999999,9.9999999 0 0 1 10,-10 9.9999999,9.9999999 0 0 1 10,10 z"/>
  <path style="fill:#ffffff" d="m 24,20 2.5,3 2.5,3 h -5 -5 l 2.5,-3 z"/>
 </g>
 <g id="22-22-remove-pressed" transform="translate(31,-57)">
  <rect style="opacity:0.001" width="22" height="22" x="13" y="13"/>
  <path style="fill:#f44336" d="m 34,24.000001 a 9.9999999,9.9999999 0 0 1 -10,9.999998 9.9999999,9.9999999 0 0 1 -10,-9.999998 9.9999999,9.9999999 0 0 1 10,-10 9.9999999,9.9999999 0 0 1 10,10 z"/>
  <rect style="fill:#ffffff" width="2" height="10" x="23" y="-29" transform="rotate(90)"/>
 </g>
 <g id="remove-hover" transform="matrix(2,0,0,2,34,-198)">
  <rect style="opacity:0.001" width="16" height="16" x="0" y="34"/>
  <path style="fill:#f44336" d="m 15,41.999999 a 6.9999999,6.9999999 0 0 1 -7,6.999999 6.9999999,6.9999999 0 0 1 -7,-6.999999 6.9999999,6.9999999 0 0 1 7,-7 6.9999999,6.9999999 0 0 1 7,7 z"/>
  <rect style="fill:#ffffff" width="2" height="8" x="41" y="-12" transform="rotate(90)"/>
 </g>
 <g id="add-hover" transform="matrix(2,0,0,2,34,-198)">
  <rect style="opacity:0.001" width="16" height="16" x="0" y="18"/>
  <path style="fill:#4caf50" d="m 15,25.999999 a 6.9999999,6.9999999 0 0 1 -7,6.999999 6.9999999,6.9999999 0 0 1 -7,-6.999999 6.9999999,6.9999999 0 0 1 7,-7 6.9999999,6.9999999 0 0 1 7,7 z"/>
  <path style="fill:#ffffff" transform="matrix(0.5,0,0,0.5,-17,99)" d="M 48 -154 L 48 -148 L 42 -148 L 42 -144 L 48 -144 L 48 -138 L 52 -138 L 52 -144 L 58 -144 L 58 -148 L 52 -148 L 52 -154 L 48 -154 z"/>
 </g>
 <g id="open-hover" transform="matrix(2,0,0,2,34,-198)">
  <rect style="opacity:0.001" width="16" height="16" x="0" y="50"/>
  <path style="fill:#8ab4f8" d="m 15,57.999999 a 6.9999999,6.9999999 0 0 1 -7,6.999999 6.9999999,6.9999999 0 0 1 -7,-6.999999 6.9999999,6.9999999 0 0 1 7,-7 6.9999999,6.9999999 0 0 1 7,7 z"/>
  <path style="fill:#ffffff" transform="matrix(1.0755682,0,0,0.77622444,-0.90681813,26.622351)" d="M 8.2810355,36.558561 10.140518,39.779279 12,42.999997 H 8.2810354 4.5620707 l 1.8594824,-3.220718 z"/>
 </g>
 <g id="remove-pressed" transform="matrix(2,0,0,2,66,-198)">
  <rect style="opacity:0.001" width="16" height="16" x="0" y="34"/>
  <path style="fill:#f44336" d="m 15,41.999999 a 6.9999999,6.9999999 0 0 1 -7,6.999999 6.9999999,6.9999999 0 0 1 -7,-6.999999 6.9999999,6.9999999 0 0 1 7,-7 6.9999999,6.9999999 0 0 1 7,7 z"/>
  <rect style="fill:#ffffff" width="2" height="8" x="41" y="-12" transform="rotate(90)"/>
 </g>
 <g id="add-pressed" transform="matrix(2,0,0,2,66,-198)">
  <rect style="opacity:0.001" width="16" height="16" x="0" y="18"/>
  <path style="fill:#4caf50" d="m 15,25.999999 a 6.9999999,6.9999999 0 0 1 -7,6.999999 6.9999999,6.9999999 0 0 1 -7,-6.999999 6.9999999,6.9999999 0 0 1 7,-7 6.9999999,6.9999999 0 0 1 7,7 z"/>
  <path style="fill:#ffffff" transform="matrix(0.5,0,0,0.5,-33,99)" d="M 80 -154 L 80 -148 L 74 -148 L 74 -144 L 80 -144 L 80 -138 L 84 -138 L 84 -144 L 90 -144 L 90 -148 L 84 -148 L 84 -154 L 80 -154 z"/>
 </g>
 <g id="open-pressed" transform="matrix(2,0,0,2,66,-198)">
  <rect style="opacity:0.001" width="16" height="16" x="0" y="50"/>
  <path style="fill:#8ab4f8" d="m 15,57.999999 a 6.9999999,6.9999999 0 0 1 -7,6.999999 6.9999999,6.9999999 0 0 1 -7,-6.999999 6.9999999,6.9999999 0 0 1 7,-7 6.9999999,6.9999999 0 0 1 7,7 z"/>
  <path style="fill:#ffffff" transform="matrix(1.0755682,0,0,0.77622444,-0.90681813,26.622351)" d="M 8.2810355,36.558561 10.140518,39.779279 12,42.999997 H 8.2810354 4.5620707 l 1.8594824,-3.220718 z"/>
 </g>
</svg>

<?xml version="1.0" encoding="UTF-8"?>
<svg width="48" height="48" version="1.1" xmlns="http://www.w3.org/2000/svg">
 <g id="16-16-remove-normal" transform="translate(0,-18)">
  <rect y="34" width="16" height="16" opacity=".001"/>
  <path d="m15 42a7 7 0 0 1-7 7 7 7 0 0 1-7-7 7 7 0 0 1 7-7 7 7 0 0 1 7 7z" fill="#fff" opacity=".1"/>
  <rect transform="rotate(90)" x="41" y="-12" width="2" height="8" fill="#fff"/>
 </g>
 <g id="16-16-add-normal" transform="translate(0,-18)">
  <rect y="18" width="16" height="16" opacity=".001"/>
  <path d="m15 26a7 7 0 0 1-7 7 7 7 0 0 1-7-7 7 7 0 0 1 7-7 7 7 0 0 1 7 7z" fill="#fff" opacity=".1"/>
  <path transform="translate(0,18)" d="m7 4v3h-3v2h3v3h2v-3h3v-2h-3v-3h-2z" fill="#fff"/>
 </g>
 <g id="16-16-open-normal" transform="translate(0,-18)">
  <rect y="50" width="16" height="16" opacity=".001"/>
  <path d="m15 58a7 7 0 0 1-7 7 7 7 0 0 1-7-7 7 7 0 0 1 7-7 7 7 0 0 1 7 7z" fill="#fff" opacity=".1"/>
  <path transform="matrix(1.0756 0 0 .77622 -.90682 26.622)" d="m8.281 36.559 3.719 6.4414h-7.4379l1.8595-3.2207z" fill="#fff"/>
 </g>
 <g id="16-16-remove-hover" transform="translate(16,-18)">
  <rect y="34" width="16" height="16" opacity=".001"/>
  <path d="m15 42a7 7 0 0 1-7 7 7 7 0 0 1-7-7 7 7 0 0 1 7-7 7 7 0 0 1 7 7z" fill="#f44336"/>
  <rect transform="rotate(90)" x="41" y="-12" width="2" height="8" fill="#fff"/>
 </g>
 <g id="16-16-add-hover" transform="translate(16,-18)">
  <rect y="18" width="16" height="16" opacity=".001"/>
  <path d="m15 26a7 7 0 0 1-7 7 7 7 0 0 1-7-7 7 7 0 0 1 7-7 7 7 0 0 1 7 7z" fill="#4caf50"/>
  <path transform="translate(-16,18)" d="m23 4v3h-3v2h3v3h2v-3h3v-2h-3v-3h-2z" fill="#fff"/>
 </g>
 <g id="16-16-open-hover" transform="translate(16,-18)">
  <rect y="50" width="16" height="16" opacity=".001"/>
  <path d="m15 58a7 7 0 0 1-7 7 7 7 0 0 1-7-7 7 7 0 0 1 7-7 7 7 0 0 1 7 7z" fill="#8ab4f8"/>
  <path transform="matrix(1.0756 0 0 .77622 -.90682 26.622)" d="m8.281 36.559 3.719 6.4414h-7.4379l1.8595-3.2207z" fill="#fff"/>
 </g>
 <g id="16-16-remove-pressed" transform="translate(32,-18)">
  <rect y="34" width="16" height="16" opacity=".001"/>
  <path d="m15 42a7 7 0 0 1-7 7 7 7 0 0 1-7-7 7 7 0 0 1 7-7 7 7 0 0 1 7 7z" fill="#f44336"/>
  <rect transform="rotate(90)" x="41" y="-12" width="2" height="8" fill="#fff"/>
 </g>
 <g id="16-16-add-pressed" transform="translate(32,-18)">
  <rect y="18" width="16" height="16" opacity=".001"/>
  <path d="m15 26a7 7 0 0 1-7 7 7 7 0 0 1-7-7 7 7 0 0 1 7-7 7 7 0 0 1 7 7z" fill="#4caf50"/>
  <path transform="translate(-32,18)" d="m39 4v3h-3v2h3v3h2v-3h3v-2h-3v-3h-2z" fill="#fff"/>
 </g>
 <g id="16-16-open-pressed" transform="translate(32,-18)">
  <rect y="50" width="16" height="16" opacity=".001"/>
  <path d="m15 58a7 7 0 0 1-7 7 7 7 0 0 1-7-7 7 7 0 0 1 7-7 7 7 0 0 1 7 7z" fill="#8ab4f8"/>
  <path transform="matrix(1.0756 0 0 .77622 -.90682 26.622)" d="m8.281 36.559 3.719 6.4414h-7.4379l1.8595-3.2207z" fill="#fff"/>
 </g>
 <g id="22-22-add-normal" transform="translate(-13,-79)">
  <rect x="13" y="13" width="22" height="22" opacity=".001"/>
  <path d="m34 24a10 10 0 0 1-10 10 10 10 0 0 1-10-10 10 10 0 0 1 10-10 10 10 0 0 1 10 10z" fill="#fff" opacity=".1"/>
  <path transform="translate(13,79)" d="m10-60v4h-4v2h4v4h2v-4h4v-2h-4v-4h-2z" fill="#fff"/>
 </g>
 <g id="22-22-open-normal" transform="translate(-13,-35)">
  <rect x="13" y="13" width="22" height="22" opacity=".001"/>
  <path d="m34 24a10 10 0 0 1-10 10 10 10 0 0 1-10-10 10 10 0 0 1 10-10 10 10 0 0 1 10 10z" fill="#fff" opacity=".1"/>
  <path d="m24 20 5 6h-10l2.5-3z" fill="#fff"/>
 </g>
 <g id="22-22-remove-normal" transform="translate(-13,-57)">
  <rect x="13" y="13" width="22" height="22" opacity=".001"/>
  <path d="m34 24a10 10 0 0 1-10 10 10 10 0 0 1-10-10 10 10 0 0 1 10-10 10 10 0 0 1 10 10z" fill="#fff" opacity=".1"/>
  <rect transform="rotate(90)" x="23" y="-29" width="2" height="10" fill="#fff"/>
 </g>
 <g id="remove-normal" transform="matrix(2,0,0,2,0,-198)">
  <rect y="34" width="16" height="16" opacity=".001"/>
  <path d="m15 42a7 7 0 0 1-7 7 7 7 0 0 1-7-7 7 7 0 0 1 7-7 7 7 0 0 1 7 7z" fill="#fff" opacity=".1"/>
  <rect transform="rotate(90)" x="41" y="-12" width="2" height="8" fill="#fff"/>
 </g>
 <g id="add-normal" transform="matrix(2,0,0,2,0,-198)">
  <rect y="18" width="16" height="16" opacity=".001"/>
  <path d="m15 26a7 7 0 0 1-7 7 7 7 0 0 1-7-7 7 7 0 0 1 7-7 7 7 0 0 1 7 7z" fill="#fff" opacity=".1"/>
  <path transform="matrix(.5 0 0 .5 0 99)" d="m14-154v6h-6v4h6v6h4v-6h6v-4h-6v-6h-4z" fill="#fff"/>
 </g>
 <g id="open-normal" transform="matrix(2,0,0,2,0,-198)">
  <rect y="50" width="16" height="16" opacity=".001"/>
  <path d="m15 58a7 7 0 0 1-7 7 7 7 0 0 1-7-7 7 7 0 0 1 7-7 7 7 0 0 1 7 7z" fill="#fff" opacity=".1"/>
  <path transform="matrix(1.0756 0 0 .77622 -.90682 26.622)" d="m8.281 36.559 3.719 6.4414h-7.4379l1.8595-3.2207z" fill="#fff"/>
 </g>
 <g id="22-22-add-hover" transform="translate(9,-79)">
  <rect x="13" y="13" width="22" height="22" opacity=".001"/>
  <path d="m34 24a10 10 0 0 1-10 10 10 10 0 0 1-10-10 10 10 0 0 1 10-10 10 10 0 0 1 10 10z" fill="#4caf50"/>
  <path transform="translate(-9,79)" d="m32-60v4h-4v2h4v4h2v-4h4v-2h-4v-4h-2z" fill="#fff"/>
 </g>
 <g id="22-22-open-hover" transform="translate(9,-35)">
  <rect x="13" y="13" width="22" height="22" opacity=".001"/>
  <path d="m34 24a10 10 0 0 1-10 10 10 10 0 0 1-10-10 10 10 0 0 1 10-10 10 10 0 0 1 10 10z" fill="#8ab4f8"/>
  <path d="m24 20 5 6h-10l2.5-3z" fill="#fff"/>
 </g>
 <g id="22-22-remove-hover" transform="translate(9,-57)">
  <rect x="13" y="13" width="22" height="22" opacity=".001"/>
  <path d="m34 24a10 10 0 0 1-10 10 10 10 0 0 1-10-10 10 10 0 0 1 10-10 10 10 0 0 1 10 10z" fill="#f44336"/>
  <rect transform="rotate(90)" x="23" y="-29" width="2" height="10" fill="#fff"/>
 </g>
 <g id="22-22-add-pressed" transform="translate(31,-79)">
  <rect x="13" y="13" width="22" height="22" opacity=".001"/>
  <path d="m34 24a10 10 0 0 1-10 10 10 10 0 0 1-10-10 10 10 0 0 1 10-10 10 10 0 0 1 10 10z" fill="#4caf50"/>
  <path transform="translate(-31,79)" d="m54-60v4h-4v2h4v4h2v-4h4v-2h-4v-4h-2z" fill="#fff"/>
 </g>
 <g id="22-22-open-pressed" transform="translate(31,-35)">
  <rect x="13" y="13" width="22" height="22" opacity=".001"/>
  <path d="m34 24a10 10 0 0 1-10 10 10 10 0 0 1-10-10 10 10 0 0 1 10-10 10 10 0 0 1 10 10z" fill="#8ab4f8"/>
  <path d="m24 20 5 6h-10l2.5-3z" fill="#fff"/>
 </g>
 <g id="22-22-remove-pressed" transform="translate(31,-57)">
  <rect x="13" y="13" width="22" height="22" opacity=".001"/>
  <path d="m34 24a10 10 0 0 1-10 10 10 10 0 0 1-10-10 10 10 0 0 1 10-10 10 10 0 0 1 10 10z" fill="#f44336"/>
  <rect transform="rotate(90)" x="23" y="-29" width="2" height="10" fill="#fff"/>
 </g>
 <g id="remove-hover" transform="matrix(2,0,0,2,34,-198)">
  <rect y="34" width="16" height="16" opacity=".001"/>
  <path d="m15 42a7 7 0 0 1-7 7 7 7 0 0 1-7-7 7 7 0 0 1 7-7 7 7 0 0 1 7 7z" fill="#f44336"/>
  <rect transform="rotate(90)" x="41" y="-12" width="2" height="8" fill="#fff"/>
 </g>
 <g id="add-hover" transform="matrix(2,0,0,2,34,-198)">
  <rect y="18" width="16" height="16" opacity=".001"/>
  <path d="m15 26a7 7 0 0 1-7 7 7 7 0 0 1-7-7 7 7 0 0 1 7-7 7 7 0 0 1 7 7z" fill="#4caf50"/>
  <path transform="matrix(.5 0 0 .5 -17 99)" d="m48-154v6h-6v4h6v6h4v-6h6v-4h-6v-6h-4z" fill="#fff"/>
 </g>
 <g id="open-hover" transform="matrix(2,0,0,2,34,-198)">
  <rect y="50" width="16" height="16" opacity=".001"/>
  <path d="m15 58a7 7 0 0 1-7 7 7 7 0 0 1-7-7 7 7 0 0 1 7-7 7 7 0 0 1 7 7z" fill="#8ab4f8"/>
  <path transform="matrix(1.0756 0 0 .77622 -.90682 26.622)" d="m8.281 36.559 3.719 6.4414h-7.4379l1.8595-3.2207z" fill="#fff"/>
 </g>
 <g id="remove-pressed" transform="matrix(2,0,0,2,66,-198)">
  <rect y="34" width="16" height="16" opacity=".001"/>
  <path d="m15 42a7 7 0 0 1-7 7 7 7 0 0 1-7-7 7 7 0 0 1 7-7 7 7 0 0 1 7 7z" fill="#f44336"/>
  <rect transform="rotate(90)" x="41" y="-12" width="2" height="8" fill="#fff"/>
 </g>
 <g id="add-pressed" transform="matrix(2,0,0,2,66,-198)">
  <rect y="18" width="16" height="16" opacity=".001"/>
  <path d="m15 26a7 7 0 0 1-7 7 7 7 0 0 1-7-7 7 7 0 0 1 7-7 7 7 0 0 1 7 7z" fill="#4caf50"/>
  <path transform="matrix(.5 0 0 .5 -33 99)" d="m80-154v6h-6v4h6v6h4v-6h6v-4h-6v-6h-4z" fill="#fff"/>
 </g>
 <g id="open-pressed" transform="matrix(2,0,0,2,66,-198)">
  <rect y="50" width="16" height="16" opacity=".001"/>
  <path d="m15 58a7 7 0 0 1-7 7 7 7 0 0 1-7-7 7 7 0 0 1 7-7 7 7 0 0 1 7 7z" fill="#8ab4f8"/>
  <path transform="matrix(1.0756 0 0 .77622 -.90682 26.622)" d="m8.281 36.559 3.719 6.4414h-7.4379l1.8595-3.2207z" fill="#fff"/>
 </g>
</svg>
